X: 10513
M: 6/8
L: 1/8
K: G
|:\
vDB,D GBd | cBA GAB | ced cBA | BGA BGE |\
|: ud |\
def gag | bef gdB | dba bef | gdA BGE |\


